**harmony	**harte	**kern	**silbe	**kern	**silbe	**rhyme	**timestamp	**phrase
*M4/4	*M4/4	*ICvox	*	*ICvox	*	*	*	*
*	*	*VRlead	*	*VRbacking	*	*	*	*
*	*	*Hstimme	*	*Nstimme	*	*	*	*
*b:	*b:	*b:	*	*b:	*	*	*b:	*b:
*	*	*M4/4	*	*M4/4	*	*	*	*
*	*	*clefC3	*	*clefG2	*	*	*	*
1r;	1r	r;	.	r;	.	.	0	.
=1	=1	=1	=1	=1	=1	=1	=1	=1
*>Letter>A	*>Letter>A	*>Letter>A	*>Letter>A	*>Letter>A	*>Letter>A	*>Letter>A	*>Letter>A	*>Letter>A
*>Label>Intro	*>Label>Intro	*>Label>Intro	*>Label>Intro	*>Label>Intro	*>Label>Intro	*>Label>Intro	*>Label>Intro	*>Label>Intro
1GM	G:maj	1r	.	1r	.	.	1.285	newline
=2	=2	=2	=2	=2	=2	=2	=2	=2
1GM	G:maj	1r	.	1r	.	.	2.689	.
=3	=3	=3	=3	=3	=3	=3	=3	=3
1DM	D:maj	1r	.	1r	.	.	4.094	.
=4	=4	=4	=4	=4	=4	=4	=4	=4
1DMm	D:7	1r	.	1r	.	.	5.498	.
=5	=5	=5	=5	=5	=5	=5	=5	=5
1GM	G:maj	1r	.	1r	.	.	6.902	newline
=6	=6	=6	=6	=6	=6	=6	=6	=6
1GM	G:maj	1r	.	1r	.	.	8.318	.
=7	=7	=7	=7	=7	=7	=7	=7	=7
1Bm	B:min	1r	.	1r	.	.	9.734	->newline
=8	=8	=8	=8	=8	=8	=8	=8	=8
1Bm	B:min	1r	.	1r	.	.	11.16	.
=9	=9	=9	=9	=9	=9	=9	=9	=9
1GM	G:maj	1r	.	1r	.	.	12.586	.
=10	=10	=10	=10	=10	=10	=10	=10	=10
1GM	G:maj	1r	.	1r	.	.	14.012	.
=11	=11	=11	=11	=11	=11	=11	=11	=11
1DM	D:maj	1r	.	1r	.	.	15.438	newline
=12	=12	=12	=12	=12	=12	=12	=12	=12
1DM	D:maj	1r	.	1r	.	.	16.858	.
=13	=13	=13	=13	=13	=13	=13	=13	=13
1GM	G:maj	1r	.	1r	.	.	18.278	.
=14	=14	=14	=14	=14	=14	=14	=14	=14
1GM	G:maj	2r	.	1r	.	.	19.698	.
.	.	8r	.	.	.	.	.	.
.	.	8B	There's	.	.	.	.	.
.	.	8B	a	.	.	.	.	.
.	.	8dq	_	.	.	.	.	.
.	.	[8e	light	.	.	.	.	.
=15	=15	=15	=15	=15	=15	=15	=15	=15
*>Letter>B	*>Letter>B	*>Letter>B	*>Letter>B	*>Letter>B	*>Letter>B	*>Letter>B	*>Letter>B	*>Letter>B
*>Label>Verse	*>Label>Verse	*>Label>Verse	*>Label>Verse	*>Label>Verse	*>Label>Verse	*>Label>Verse	*>Label>Verse	*>Label>Verse
1Bm	B:min	4e]	_	1r	.	.	21.118	newline
.	.	8d	_	.	.	.	.	.
.	.	[8B	in	.	.	.	.	.
.	.	8B]	_	.	.	.	.	.
.	.	8B	your	.	.	.	.	.
.	.	8A	_	.	.	.	.	.
.	.	[8B	win	.	.	.	.	.
=16	=16	=16	=16	=16	=16	=16	=16	=16
1Bm	B:min	8B]	_	1r	.	.	22.54	.
.	.	8d	dow	.	.	.	.	.
.	.	4r	.	.	.	.	.	.
.	.	8r	.	.	.	.	.	.
.	.	8B	there's	.	.	.	.	.
.	.	8d	a	.	.	.	.	.
.	.	[8e	sha	.	.	.	.	.
=17	=17	=17	=17	=17	=17	=17	=17	=17
1Em	E:min	4e]	_	1r	.	.	23.962	.
.	.	8d	dow	.	.	.	.	.
.	.	[8d	on	.	.	.	.	.
.	.	8d]	_	.	.	.	.	.
.	.	4d	the	.	.	.	.	.
.	.	8A	street	.	.	A	.	.
=18	=18	=18	=18	=18	=18	=18	=18	=18
1Em	E:min	8B	_	1r	.	.	25.384	.
.	.	8r	.	.	.	.	.	.
.	.	4r	.	.	.	.	.	.
.	.	8r	.	.	.	.	.	.
.	.	8f	Two	.	.	.	.	.
.	.	8e	sil-	.	.	.	.	.
.	.	8d	-hou-	.	.	.	.	.
=19	=19	=19	=19	=19	=19	=19	=19	=19
1DM	D:maj	4d	-ettes	1r	.	.	26.806	newline
.	.	8B	tell	.	.	.	.	.
.	.	[8B	me	.	.	.	.	.
.	.	8B]	_	.	.	.	.	.
.	.	4A	it's	.	.	.	.	.
.	.	8Eq	_	.	.	.	.	.
.	.	[8F#	o	.	.	.	.	.
=20	=20	=20	=20	=20	=20	=20	=20	=20
1AM	A:maj	8F#]	_	1r	.	.	28.232	.
.	.	8E	ver	.	.	.	.	.
.	.	4r	.	.	.	.	.	.
.	.	8r	.	.	.	.	.	.
.	.	8D	the	.	.	.	.	.
.	.	8~F	sha-	.	.	.	.	.
.	.	8~E	-dow	.	.	.	.	.
=21	=21	=21	=21	=21	=21	=21	=21	=21
1Em	E:min	4~D	knows	1r	.	.	29.658	.
.	.	4D	the	.	.	.	.	.
.	.	8G	sha-	.	.	.	.	.
.	.	4A	-dow's	.	.	.	.	.
.	.	[8B	me	.	.	A	.	.
=22	=22	=22	=22	=22	=22	=22	=22	=22
1Em	E:min	8B]	_	1r	.	.	31.084	.
.	.	8r	.	.	.	.	.	.
.	.	8r	.	.	.	.	.	.
.	.	[8f	I	.	.	.	.	.
.	.	8f]	_	.	.	.	.	.
.	.	4e	won't	.	.	.	.	.
.	.	8f	crawl	.	.	.	.	.
=23	=23	=23	=23	=23	=23	=23	=23	=23
1Bm	B:min	4e	_	1r	.	.	32.51	newline
.	.	8d	or	.	.	.	.	.
.	.	[8d	cause	.	.	.	.	.
.	.	8d]	_	.	.	.	.	.
.	.	8B	you	.	.	.	.	.
.	.	8A	_	.	.	.	.	.
.	.	[8B	trou	.	.	.	.	.
=24	=24	=24	=24	=24	=24	=24	=24	=24
1Bm	B:min	8B]	_	1r	.	.	33.934	.
.	.	8d	ble	.	.	.	.	.
.	.	4r	.	.	.	.	.	.
.	.	8r	.	.	.	.	.	.
.	.	8A	well,	.	.	.	.	.
.	.	8B	that's	.	.	.	.	.
.	.	8d	the	.	.	.	.	.
=25	=25	=25	=25	=25	=25	=25	=25	=25
1Em	E:min	4e	last	1r	.	.	35.358	.
.	.	8d	thing	.	.	.	.	.
.	.	8B	I'd	.	.	.	.	.
.	.	8d	e-	.	.	.	.	.
.	.	4d	-ver	.	.	.	.	.
.	.	8Aq	_	.	.	.	.	.
.	.	[8B	do	.	.	B	.	.
=26	=26	=26	=26	=26	=26	=26	=26	=26
1Em	E:min	4B]	_	1r	.	.	36.782	.
.	.	4r	.	.	.	.	.	.
.	.	8r	.	.	.	.	.	.
.	.	8f	But	.	.	.	.	.
.	.	8e	be-	.	.	.	.	.
.	.	8e	-fore	.	.	.	.	.
=27	=27	=27	=27	=27	=27	=27	=27	=27
1Bm	B:min/5	4d	_	1r	.	.	38.206	newline
.	.	8B	I	.	.	.	.	.
.	.	[8d	leave	.	.	.	.	.
.	.	8d]	_	.	.	.	.	.
.	.	8e	your	.	.	.	.	.
.	.	8d	_	.	.	.	.	.
.	.	8f	life	.	.	.	.	.
=28	=28	=28	=28	=28	=28	=28	=28	=28
1GMm	G:7	4e	_	1r	.	.	39.634	.
.	.	8e	com-	.	.	.	.	.
.	.	8e	-plete	.	.	.	.	.
.	.	8d	_	.	.	.	.	.
.	.	4d	ly,	.	.	.	.	.
.	.	[8f#	tell	.	.	.	.	.
=29	=29	=29	=29	=29	=29	=29	=29	=29
1F#Mm	F#:7	8f#]	_	1r	.	.	41.062	.
.	.	8f#	me	.	.	A	.	.
.	.	4r	.	.	.	.	.	.
.	.	2r	.	.	.	.	.	.
=30	=30	=30	=30	=30	=30	=30	=30	=30
1F#Mm	F#:7	8r	.	1r	.	.	42.491	.
.	.	8e	who	.	.	B	.	.
.	.	8d	_	.	.	.	.	.
.	.	[8e	wears	.	.	.	.	.
.	.	8e]	_	.	.	.	.	.
.	.	4e	these	.	.	.	.	.
.	.	16e	shoes	.	.	B	.	.
.	.	16d	/	.	.	.	.	.
=31	=31	=31	=31	=31	=31	=31	=31	=31
*>Letter>B	*>Letter>B	*>Letter>B	*>Letter>B	*>Letter>B	*>Letter>B	*>Letter>B	*>Letter>B	*>Letter>B
*>Label>Refrain	*>Label>Refrain	*>Label>Refrain	*>Label>Refrain	*>Label>Refrain	*>Label>Refrain	*>Label>Refrain	*>Label>Refrain	*>Label>Refrain
1Bm	B:min	4B	_	1r	.	.	43.919	newline
.	.	2.r	.	.	.	.	.	.
=32	=32	=32	=32	=32	=32	=32	=32	=32
1Bm	B:min	2r	.	2r	.	.	45.349	.
.	.	4r	.	4r	.	.	.	.
.	.	8r	.	8r	.	.	.	.
.	.	8dq	_	8f#q	_	.	.	.
.	.	[8e	Dar	[8g	Dar	.	.	.
=33	=33	=33	=33	=33	=33	=33	=33	=33
1Em	E:min	8e]	_	8g]	_	.	46.778	.
.	.	8f#	ling	8a	ling	.	.	.
.	.	4r	.	4r	.	.	.	.
.	.	2r	.	2r	.	.	.	.
=34	=34	=34	=34	=34	=34	=34	=34	=34
1Em	E:min	1r	.	1r	.	.	48.208	.
=35	=35	=35	=35	=35	=35	=35	=35	=35
1Bm	B:min	1r	.	1r	.	.	49.638	newline
=36	=36	=36	=36	=36	=36	=36	=36	=36
1Bm	B:min	1r	.	1r	.	.	51.062	.
=37	=37	=37	=37	=37	=37	=37	=37	=37
1Em	E:min	1r	.	1r	.	.	52.486	.
=38	=38	=38	=38	=38	=38	=38	=38	=38
1Em	E:min	4r	.	1r	.	.	53.91	.
.	.	8r	.	.	.	.	.	.
.	.	[8f	Lord	.	.	.	.	.
.	.	8f]	_	.	.	.	.	.
.	.	4e	knows	.	.	.	.	.
.	.	8d	the	.	.	.	.	.
=39	=39	=39	=39	=39	=39	=39	=39	=39
*>Letter>B	*>Letter>B	*>Letter>B	*>Letter>B	*>Letter>B	*>Letter>B	*>Letter>B	*>Letter>B	*>Letter>B
*>Label>Verse	*>Label>Verse	*>Label>Verse	*>Label>Verse	*>Label>Verse	*>Label>Verse	*>Label>Verse	*>Label>Verse	*>Label>Verse
1Bm	B:min	8e	days	1r	.	.	55.334	newline
.	.	8f	_	.	.	.	.	.
.	.	8e	_	.	.	.	.	.
.	.	[8e	just	.	.	.	.	.
.	.	8e]	_	.	.	.	.	.
.	.	8e	get	.	.	.	.	.
.	.	8d	l-	.	.	.	.	.
.	.	[8e	-lon	.	.	.	.	.
=40	=40	=40	=40	=40	=40	=40	=40	=40
1Bm	B:min	8d	_	1r	.	.	56.76	.
.	.	8d	ger	.	.	.	.	.
.	.	8r	.	.	.	.	.	.
.	.	8F#	the	.	.	.	.	.
.	.	8B	nights	.	.	.	.	.
.	.	4d	grow	.	.	.	.	.
.	.	8d	cold	.	.	.	.	.
=41	=41	=41	=41	=41	=41	=41	=41	=41
1Em	E:min	8e]	_	1r	.	.	58.186	.
.	.	8d	_	.	.	.	.	.
.	.	8d	with	.	.	.	.	.
.	.	8B	you	.	.	.	.	.
.	.	8d	on	.	.	.	.	.
.	.	4d	my	.	.	.	.	.
.	.	8Aq	_	.	.	.	.	.
.	.	[8B	mind	.	.	C	.	.
=42	=42	=42	=42	=42	=42	=42	=42	=42
1Em	E:min	4B]	_	1r	.	.	59.612	.
.	.	4r	.	.	.	.	.	.
.	.	8r	.	.	.	.	.	.
.	.	8f	And	.	.	.	.	.
.	.	8e	I	.	.	.	.	.
.	.	8e	feel	.	.	.	.	.
=43	=43	=43	=43	=43	=43	=43	=43	=43
1DM	D:maj	4d	_	1r	.	.	61.038	newline
.	.	8d	like	.	.	.	.	.
.	.	8B	an	.	.	.	.	.
.	.	4.d	old	.	.	.	.	.
.	.	8Aq	_	.	.	.	.	.
.	.	[8B	juke	.	.	.	.	.
=44	=44	=44	=44	=44	=44	=44	=44	=44
1AM	A:maj	8B]	_	1r	.	.	62.452	.
.	.	4A	box	.	.	.	.	.
.	.	8r	.	.	.	.	.	.
.	.	8r	.	.	.	.	.	.
.	.	8F#	pla-	.	.	.	.	.
.	.	8E	-ying	.	.	.	.	.
.	.	8D	the	.	.	.	.	.
=45	=45	=45	=45	=45	=45	=45	=45	=45
1Em	E:min	4E	same	1r	.	.	63.866	.
.	.	4D	song	.	.	.	.	.
.	.	8F#	all	.	.	.	.	.
.	.	4A	the	.	.	.	.	.
.	.	8Aq	_	.	.	.	.	.
.	.	[8B	time	.	.	C	.	.
=46	=46	=46	=46	=46	=46	=46	=46	=46
1Em	E:min	8B]	_	1r	.	.	65.28	.
.	.	8r	.	.	.	.	.	.
.	.	8r	.	.	.	.	.	.
.	.	[8f	If	.	.	.	.	.
.	.	8f]	_	.	.	.	.	.
.	.	4f	these	.	.	.	.	.
.	.	8f	cra	.	.	.	.	.
=47	=47	=47	=47	=47	=47	=47	=47	=47
1Bm	B:min	4e	_	1r	.	.	66.694	newline
.	.	8d	zy	.	.	.	.	.
.	.	[8d	dreams	.	.	.	.	.
.	.	8d]	_	.	.	.	.	.
.	.	4e	don't	.	.	.	.	.
.	.	8e#q	_	.	.	.	.	.
.	.	[8f#	kill	.	.	.	.	.
=48	=48	=48	=48	=48	=48	=48	=48	=48
1Bm	B:min	8f#]	_	1r	.	.	68.116	.
.	.	8d	me	.	.	.	.	.
.	.	4r	.	.	.	.	.	.
.	.	8r	.	.	.	.	.	.
.	.	8~A	it's	.	.	.	.	.
.	.	8~d	more	.	.	.	.	.
.	.	8~B	than	.	.	.	.	.
=49	=49	=49	=49	=49	=49	=49	=49	=49
1Em	E:min	4d	I	1r	.	.	69.538	.
.	.	8B	can	.	.	.	.	.
.	.	[8d	take	.	.	.	.	.
.	.	8d]	_	.	.	.	.	.
.	.	8d	from	.	.	.	.	.
.	.	8e	_	.	.	.	.	.
.	.	[8d	you	.	.	B	.	.
=50	=50	=50	=50	=50	=50	=50	=50	=50
1Em	E:min	4d]	_	1r	.	.	70.96	.
.	.	4r	.	.	.	.	.	.
.	.	8r	.	.	.	.	.	.
.	.	8B	not	.	.	.	.	.
.	.	8d	kno-	.	.	.	.	.
.	.	8B	-wing	.	.	.	.	.
=51	=51	=51	=51	=51	=51	=51	=51	=51
1Bm	B:min/5	4d	where	1r	.	.	72.382	newline
.	.	8B	or	.	.	.	.	.
.	.	[8d	when	.	.	.	.	.
.	.	8d]	_	.	.	.	.	.
.	.	4e	I'll	.	.	.	.	.
.	.	4eQ	_	.	.	.	.	.
.	.	[8f#	see	.	.	.	.	.
=52	=52	=52	=52	=52	=52	=52	=52	=52
1GMm	G:7	8f#]	_	1r	.	.	73.826	.
.	.	8B	you	.	.	.	.	.
.	.	4r	.	.	.	.	.	.
.	.	8B	not	.	.	.	.	.
.	.	8d	kno-	.	.	.	.	.
.	.	8e	-wing	.	.	.	.	.
.	.	8r	.	.	.	.	.	.
=53	=53	=53	=53	=53	=53	=53	=53	=53
1F#Mm	F#:7	4f#	dar-	1r	.	.	75.27	.
.	.	4e	-ling	.	.	.	.	.
.	.	2r	.	.	.	.	.	.
=54	=54	=54	=54	=54	=54	=54	=54	=54
1F#Mm	F#:7	8r	.	1r	.	.	76.714	.
.	.	8f	who	.	.	B	.	.
.	.	8e	_	.	.	.	.	.
.	.	[8e	wears	.	.	.	.	.
.	.	8e]	_	.	.	.	.	.
.	.	4e	these	.	.	.	.	.
.	.	16e	shoes	.	.	B	.	.
.	.	16d	_	.	.	.	.	.
=55	=55	=55	=55	=55	=55	=55	=55	=55
*>Letter>B	*>Letter>B	*>Letter>B	*>Letter>B	*>Letter>B	*>Letter>B	*>Letter>B	*>Letter>B	*>Letter>B
*>Label>Refrain	*>Label>Refrain	*>Label>Refrain	*>Label>Refrain	*>Label>Refrain	*>Label>Refrain	*>Label>Refrain	*>Label>Refrain	*>Label>Refrain
1Bm	B:min	4B	_	1r	.	.	78.158	newline
.	.	4r	.	.	.	.	.	.
.	.	2r	.	.	.	.	.	.
=56	=56	=56	=56	=56	=56	=56	=56	=56
1Bm	B:min	4r	.	1r	.	.	79.553	.
.	.	8r	.	.	.	.	.	.
.	.	8B	My	.	.	.	.	.
.	.	8f	friends	.	.	.	.	.
.	.	4e	all	.	.	.	.	.
.	.	8f	say	.	.	.	.	.
=57	=57	=57	=57	=57	=57	=57	=57	=57
*>Letter>C	*>Letter>C	*>Letter>C	*>Letter>C	*>Letter>C	*>Letter>C	*>Letter>C	*>Letter>C	*>Letter>C
*>Label>Verse	*>Label>Verse	*>Label>Verse	*>Label>Verse	*>Label>Verse	*>Label>Verse	*>Label>Verse	*>Label>Verse	*>Label>Verse
1DM	D:maj	4e	_	4r	.	.	80.948	newline
.	.	4e	\\\"don't	4f# 4a	Hoo,	.	.	.
.	.	8eq	_	.	.	.	.	.
.	.	4d	go	4f# 4a	hoo	.	.	.
.	.	8d	to	4r	.	.	.	.
.	.	[8d	pie	.	.	.	.	.
=58	=58	=58	=58	=58	=58	=58	=58	=58
.	.	.	.	8f#q 8aq	_	.	.	.
1DM	D:maj	8d]	_	4.g 4.b	hoo	.	82.382	.
.	.	8~E	ces,\\\"	.	.	.	.	.
.	.	8r	.	.	.	.	.	.
.	.	8F#	I	8f# 8a	_	.	.	.
.	.	8B	say,	2r	.	.	.	.
.	.	4d	\\\"that's	.	.	.	.	.
.	.	8f	fine	.	.	.	.	.
=59	=59	=59	=59	=59	=59	=59	=59	=59
1AM	A:maj/3	4e	_	4r	.	.	83.816	.
.	.	8e	but	4e 4a	Hoo,	.	.	.
.	.	[8e	if	.	.	.	.	.
.	.	8e]	_	4e 4a	hoo	.	.	.
.	.	4d	I	.	.	.	.	.
.	.	.	.	4r	.	.	.	.
.	.	8f	lose	.	.	B	.	.
=60	=60	=60	=60	=60	=60	=60	=60	=60
.	.	.	.	8eq 8aq	_	.	.	.
1AM	A:maj/3	4e	_	4.f# 4.b	hoo	.	85.25	.
.	.	8r	.	.	.	.	.	.
.	.	8eq	_	.	.	.	.	.
.	.	8f	I	8e 8a	_	.	.	.
.	.	4e	_	2r	.	.	.	.
.	.	8e	wan-	.	.	.	.	.
.	.	8d	-na	.	.	.	.	.
=61	=61	=61	=61	=61	=61	=61	=61	=61
1Em	E:min	4d	know	4r	.	.	86.684	newline
.	.	8d	who's	8e 8g	Hoo,	.	.	.
.	.	[8d	in	4e 4g	_	.	.	.
.	.	8d]	_	.	.	.	.	.
.	.	4e	my	4r	.	.	.	.
.	.	8eq	_	.	.	.	.	.
.	.	[8f#	foot	8r	.	.	.	.
=62	=62	=62	=62	=62	=62	=62	=62	=62
.	.	.	.	8eq 8gq	_	.	.	.
1Em	E:min	8f#]	_	4.f# 4.a	hoo	.	88.102	.
.	.	4d	steps	.	.	.	.	.
.	.	8r	.	8e 8g	_	.	.	.
.	.	8r	.	2r	.	.	.	.
.	.	8d	I	.	.	.	.	.
.	.	8d	wan-	.	.	.	.	.
.	.	8B	-na	.	.	.	.	.
=63	=63	=63	=63	=63	=63	=63	=63	=63
1Em	E:min	4d	know	1r	.	.	89.521	.
.	.	8B	who	.	.	B	.	.
.	.	[8d	wears	.	.	.	.	.
.	.	8d]	_	.	.	.	.	.
.	.	4e	these	.	.	.	.	.
.	.	8f	shoes	.	.	B	.	.
=64	=64	=64	=64	=64	=64	=64	=64	=64
1F#M	F#:maj	4e	_	1r	.	.	90.939	.
.	.	8r	.	.	.	.	.	.
.	.	8~E	My	.	.	.	.	.
.	.	8B	friends	.	.	.	.	.
.	.	4d	all	.	.	.	.	.
.	.	16f	think	.	.	.	.	.
.	.	16f#	_	.	.	.	.	.
=65	=65	=65	=65	=65	=65	=65	=65	=65
1DM	D:maj	4e	_	4r	.	.	92.358	newline
.	.	4e	I	4f# 4a	Hoo,	.	.	.
.	.	8e	must	4f# 4a	hoo	.	.	.
.	.	4d	be	.	.	.	.	.
.	.	.	.	4r	.	.	.	.
.	.	[8d	cra	.	.	.	.	.
=66	=66	=66	=66	=66	=66	=66	=66	=66
.	.	.	.	8f#q 8aq	_	.	.	.
1DM	D:maj	8d]	_	4.g 4.b	hoo	.	93.78	.
.	.	8~E	zy	.	.	.	.	.
.	.	8r	.	.	.	.	.	.
.	.	8F#	I	8f# 8a	_	.	.	.
.	.	4f	see	2r	.	.	.	.
.	.	8e	the	.	.	.	.	.
.	.	8e	facts	.	.	.	.	.
=67	=67	=67	=67	=67	=67	=67	=67	=67
1AM	A:maj/3	4r	.	4r	.	.	95.202	.
.	.	8d	but	4e 4a	Hoo,	.	.	.
.	.	8e	if	.	.	.	.	.
.	.	8r	.	4e 4a	hoo	.	.	.
.	.	8e	it's	.	.	.	.	.
.	.	8d	_	4r	.	.	.	.
.	.	8f	true	.	.	B	.	.
=68	=68	=68	=68	=68	=68	=68	=68	=68
.	.	.	.	8eq 8aq	_	.	.	.
1AM	A:maj/3	4e	_	4.f# 4.b	hoo	.	96.624	.
.	.	8r	.	.	.	.	.	.
.	.	8eq	_	.	.	.	.	.
.	.	8f	I	8e 8a	_	.	.	.
.	.	4e	_	2r	.	.	.	.
.	.	8e	wan-	.	.	.	.	.
.	.	8d	-na	.	.	.	.	.
=69	=69	=69	=69	=69	=69	=69	=69	=69
1Bm	B:min	4d	know	1r	.	.	98.046	newline
.	.	8B	who's	.	.	.	.	.
.	.	[8d	in	.	.	.	.	.
.	.	8d]	_	.	.	.	.	.
.	.	4e	my	.	.	.	.	.
.	.	8eq	_	.	.	.	.	.
.	.	[8f#	foot	.	.	.	.	.
=70	=70	=70	=70	=70	=70	=70	=70	=70
1GM	G:maj	8f#]	_	1r	.	.	99.482	.
.	.	4d	steps	.	.	.	.	.
.	.	8r	.	.	.	.	.	.
.	.	8r	.	.	.	.	.	.
.	.	8f	I	.	.	.	.	.
.	.	8e	wan-	.	.	.	.	.
.	.	8d	-na	.	.	.	.	.
=71	=71	=71	=71	=71	=71	=71	=71	=71
2Emm	E:min7	4d	know	1r	.	.	100.918	.
.	.	4r	.	.	.	.	.	.
2DM	D:maj/3	4f	who	.	.	B	101.636	.
.	.	4e	_	.	.	.	.	.
=72	=72	=72	=72	=72	=72	=72	=72	=72
2GM	G:maj	8e	wears	1r	.	.	102.354	.
.	.	8d	_	.	.	.	.	.
.	.	8.r	.	.	.	.	.	.
.	.	16eQ	_	.	.	.	.	.
.	.	16f	these	.	.	.	.	.
2AM	A:maj	4.e	_	.	.	.	103.072	.
.	.	16e	shoes	.	.	B	.	.
.	.	16d	_	.	.	.	.	.
=73	=73	=73	=73	=73	=73	=73	=73	=73
*>Letter>B	*>Letter>B	*>Letter>B	*>Letter>B	*>Letter>B	*>Letter>B	*>Letter>B	*>Letter>B	*>Letter>B
*>Label>Refrain	*>Label>Refrain	*>Label>Refrain	*>Label>Refrain	*>Label>Refrain	*>Label>Refrain	*>Label>Refrain	*>Label>Refrain	*>Label>Refrain
1Bm	B:min	4B	_	1r	.	.	103.79	newline
.	.	4r	.	.	.	.	.	.
.	.	2r	.	.	.	.	.	.
=74	=74	=74	=74	=74	=74	=74	=74	=74
1Bm	B:min	2r	.	2r	.	.	105.218	.
.	.	4r	.	4r	.	.	.	.
.	.	8r	.	8r	.	.	.	.
.	.	8dq	_	8f#q	_	.	.	.
.	.	[8e	Dar	[8g	Dar	.	.	.
=75	=75	=75	=75	=75	=75	=75	=75	=75
1Em	E:min	8e]	_	8g]	_	.	106.646	.
.	.	8f#	ling	8a	ling	.	.	.
.	.	4r	.	4r	.	.	.	.
.	.	2r	.	2r	.	.	.	.
=76	=76	=76	=76	=76	=76	=76	=76	=76
1Em	E:min	1r	.	1r	.	.	108.074	.
=77	=77	=77	=77	=77	=77	=77	=77	=77
1Bm	B:min	1r	.	1r	.	.	109.502	newline
=78	=78	=78	=78	=78	=78	=78	=78	=78
1Bm	B:min	1r	.	1r	.	.	110.914	.
=79	=79	=79	=79	=79	=79	=79	=79	=79
1Em	E:min	1r	.	1r	.	.	112.326	.
=80	=80	=80	=80	=80	=80	=80	=80	=80
1Em	E:min	4r	.	1r	.	.	113.738	.
.	.	8r	.	.	.	.	.	.
.	.	8f	Oh,	.	.	.	.	.
.	.	8e	_	.	.	.	.	.
.	.	8e	and	.	.	.	.	.
.	.	8e	it's	.	.	.	.	.
.	.	8d	a	.	.	.	.	.
=81	=81	=81	=81	=81	=81	=81	=81	=81
*>Letter>D	*>Letter>D	*>Letter>D	*>Letter>D	*>Letter>D	*>Letter>D	*>Letter>D	*>Letter>D	*>Letter>D
*>Label>Chorus	*>Label>Chorus	*>Label>Chorus	*>Label>Chorus	*>Label>Chorus	*>Label>Chorus	*>Label>Chorus	*>Label>Chorus	*>Label>Chorus
1GM	G:maj	8e	chi-	1r	.	.	115.15	newline
.	.	8d	-ll-	.	.	.	.	.
.	.	4e	-ing	.	.	.	.	.
.	.	8e	fee-	.	.	.	.	.
.	.	8d	-ling	.	.	.	.	.
.	.	4r	.	.	.	.	.	.
=82	=82	=82	=82	=82	=82	=82	=82	=82
1GM	G:maj	2r	.	1r	.	.	116.572	.
.	.	8r	.	.	.	.	.	.
.	.	8f#	when	.	.	.	.	.
.	.	4f#	I	.	.	.	.	.
=83	=83	=83	=83	=83	=83	=83	=83	=83
.	.	8fq	_	.	.	.	.	.
1AM	A:maj	4.f#	can't	1r	.	.	117.994	.
.	.	[8f#	see	.	.	.	.	.
.	.	8f#]	_	.	.	.	.	.
.	.	8e	him	.	.	.	.	.
.	.	4r	.	.	.	.	.	.
=84	=84	=84	=84	=84	=84	=84	=84	=84
1AM	A:maj	4r	.	1r	.	.	119.416	.
.	.	8r	.	.	.	.	.	.
.	.	8fq	_	.	.	.	.	.
.	.	[8f#	What	.	.	.	.	.
.	.	8f#]	_	.	.	.	.	.
.	.	8e	do	.	.	.	.	.
.	.	8d	I	.	.	.	.	.
.	.	8d	do	.	.	B	.	.
=85	=85	=85	=85	=85	=85	=85	=85	=85
4DM	D:maj	1r	.	1r	.	.	120.838	newline
4GM	G:maj/5	.	.	.	.	.	121.193	.
2DM	D:maj	.	.	.	.	.	121.548	.
=86	=86	=86	=86	=86	=86	=86	=86	=86
2GM	G:maj/5	4r	.	1r	.	.	122.258	.
.	.	8r	.	.	.	.	.	.
.	.	8fq	_	.	.	.	.	.
.	.	[8f#	when	.	.	.	.	.
2DM	D:maj	8f#]	_	.	.	.	122.968	.
.	.	8f#	I	.	.	.	.	.
.	.	8e	face	.	.	.	.	.
.	.	8d	the	.	.	.	.	.
=87	=87	=87	=87	=87	=87	=87	=87	=87
2DM	D:maj	4f#	two	2f# 2a	Two	B	123.678	.
.	.	4d	_	.	.	.	.	.
.	.	4dQ	_	.	.	.	.	.
2Emm	E:min7	2e	of	2g 2b	of	.	124.388	.
=88	=88	=88	=88	=88	=88	=88	=88	=88
1DMm	D:7/3	4d	you	2.a 2.cc	you	B	125.098	.
.	.	8r	.	.	.	.	.	.
.	.	8fq	_	.	.	.	.	.
.	.	[8f#	Oh,	.	.	.	.	.
.	.	8f#]	_	.	.	.	.	.
.	.	8d	and	.	.	.	.	.
.	.	8e	it's	4r	.	.	.	.
.	.	8d	a	.	.	.	.	.
=89	=89	=89	=89	=89	=89	=89	=89	=89
1GM	G:maj	8e	chi-	1r	.	.	126.518	newline
.	.	8d	-ll-	.	.	.	.	.
.	.	4e	-ing	.	.	.	.	.
.	.	8e	fee-	.	.	.	.	.
.	.	8d	-ling	.	.	.	.	.
.	.	4r	.	.	.	.	.	.
=90	=90	=90	=90	=90	=90	=90	=90	=90
2GM	G:sus4	2r	.	1r	.	.	127.954	.
2GM	G:maj	8r	.	.	.	.	128.672	.
.	.	8~f#	when	.	.	.	.	.
.	.	4f#	I	.	.	.	.	.
=91	=91	=91	=91	=91	=91	=91	=91	=91
.	.	8fq	_	.	.	.	.	.
1AM	A:maj	4.f#	can't	1r	.	.	129.39	.
.	.	[8f#	see	.	.	.	.	.
.	.	8f#]	_	.	.	.	.	.
.	.	8e	him	.	.	.	.	.
.	.	4r	.	.	.	.	.	.
=92	=92	=92	=92	=92	=92	=92	=92	=92
2AM	A:sus4	2r	.	1r	.	.	130.826	.
2AM	A:maj	8f#	what	.	.	.	131.544	.
.	.	8e	do	.	.	B	.	.
.	.	8d	I	.	.	.	.	.
.	.	8d	do?	.	.	B	.	.
=93	=93	=93	=93	=93	=93	=93	=93	=93
1Em	E:min	1r	.	1r	.	.	132.262	newline
=94	=94	=94	=94	=94	=94	=94	=94	=94
1Em	E:min	2r	.	1r	.	.	133.688	.
.	.	8f#	What	.	.	.	.	.
.	.	8e	do	.	.	B	.	.
.	.	8d	I	.	.	.	.	.
.	.	8fq	_	.	.	.	.	.
.	.	[8f#	do,	.	.	B	.	.
=95	=95	=95	=95	=95	=95	=95	=95	=95
1F#Mm	F#:7	1f#]	_	1r	.	.	135.114	.
=96	=96	=96	=96	=96	=96	=96	=96	=96
1F#Mm	F#:7	8e	_	1r	.	.	136.54	.
.	.	4f#	my	.	.	.	.	.
.	.	[8f#	friends	.	.	.	.	.
.	.	8f#]	_	.	.	.	.	.
.	.	4f#	all	.	.	.	.	.
.	.	8f	say,	.	.	.	.	.
=97	=97	=97	=97	=97	=97	=97	=97	=97
*>Letter>C	*>Letter>C	*>Letter>C	*>Letter>C	*>Letter>C	*>Letter>C	*>Letter>C	*>Letter>C	*>Letter>C
*>Label>Verse	*>Label>Verse	*>Label>Verse	*>Label>Verse	*>Label>Verse	*>Label>Verse	*>Label>Verse	*>Label>Verse	*>Label>Verse
1DM	D:maj	4e	_	4r	.	.	137.966	newline
.	.	4e	\\\"don't	4f# 4a	Hoo,	.	.	.
.	.	8eq	_	.	.	.	.	.
.	.	4d	go	4f# 4a	hoo	.	.	.
.	.	8d	to	4r	.	.	.	.
.	.	[8d	pie	.	.	.	.	.
=98	=98	=98	=98	=98	=98	=98	=98	=98
.	.	.	.	8f#q 8aq	_	.	.	.
1DM	D:maj	8d]	_	4.g 4.b	hoo	.	139.382	.
.	.	8~E	ces	.	.	.	.	.
.	.	8r	.	.	.	.	.	.
.	.	8F#	I	8f# 8a	_	.	.	.
.	.	8~f#	say,	2r	.	.	.	.
.	.	4~e	\\\"that's	.	.	.	.	.
.	.	8f	fine	.	.	.	.	.
=99	=99	=99	=99	=99	=99	=99	=99	=99
1AM	A:maj/3	4e	_	4r	.	.	140.798	.
.	.	8e	but	4e 4a	Hoo,	.	.	.
.	.	[8e	if	.	.	.	.	.
.	.	8e]	_	4e 4a	hoo	.	.	.
.	.	4d	I	.	.	.	.	.
.	.	.	.	4r	.	.	.	.
.	.	8f	lose	.	.	B	.	.
=100	=100	=100	=100	=100	=100	=100	=100	=100
.	.	.	.	8eq 8aq	_	.	.	.
1AM	A:maj/3	4e	_	4.f# 4.b	hoo	.	142.214	.
.	.	8r	.	.	.	.	.	.
.	.	8eq	_	.	.	.	.	.
.	.	8f	I	8e 8a	_	.	.	.
.	.	4e	_	2r	.	.	.	.
.	.	8e	wan-	.	.	.	.	.
.	.	8d	-na	.	.	.	.	.
=101	=101	=101	=101	=101	=101	=101	=101	=101
1Em	E:min	4d	know	4r	.	.	143.63	newline
.	.	8d	who's	8e 8g	Hoo,	.	.	.
.	.	[8d	in	4e 4g	_	.	.	.
.	.	8d]	_	.	.	.	.	.
.	.	4e	my	4r	.	.	.	.
.	.	8eq	_	.	.	.	.	.
.	.	[8f#	foot	8r	.	.	.	.
=102	=102	=102	=102	=102	=102	=102	=102	=102
.	.	.	.	8eq 8gq	_	.	.	.
1Em	E:min	8f#]	_	4.f# 4.a	hoo	.	145.051	.
.	.	4d	steps	.	.	.	.	.
.	.	8r	.	8e 8g	_	.	.	.
.	.	8r	.	2r	.	.	.	.
.	.	8f	I	.	.	.	.	.
.	.	8e	wan-	.	.	.	.	.
.	.	8d	-na	.	.	.	.	.
=103	=103	=103	=103	=103	=103	=103	=103	=103
1Em	E:min	4d	know	1r	.	.	146.472	.
.	.	8B	who	.	.	B	.	.
.	.	[8d	wears	.	.	.	.	.
.	.	8d]	_	.	.	.	.	.
.	.	4e	these	.	.	.	.	.
.	.	8f	shoes	.	.	B	.	.
=104	=104	=104	=104	=104	=104	=104	=104	=104
1F#M	F#:maj	4e	_	1r	.	.	147.893	.
.	.	8r	.	.	.	.	.	.
.	.	8~E	My	.	.	.	.	.
.	.	8A	friends	.	.	.	.	.
.	.	4d	all	.	.	.	.	.
.	.	[8f	think	.	.	.	.	.
=105	=105	=105	=105	=105	=105	=105	=105	=105
1DM	D:maj	4f]	_	4r	.	.	149.314	newline
.	.	4e	I	4f# 4a	Hoo,	.	.	.
.	.	8e	must	4f# 4a	hoo	.	.	.
.	.	4d	be	.	.	.	.	.
.	.	.	.	4r	.	.	.	.
.	.	[8d	cra	.	.	.	.	.
=106	=106	=106	=106	=106	=106	=106	=106	=106
.	.	.	.	8f#q 8aq	_	.	.	.
1DM	D:maj	8d]	_	4.g 4.b	hoo	.	150.741	.
.	.	8~E	zy	.	.	.	.	.
.	.	8r	.	.	.	.	.	.
.	.	8F#	I	8f# 8a	_	.	.	.
.	.	8eq	_	.	.	.	.	.
.	.	4f	see	2r	.	.	.	.
.	.	8e	the	.	.	.	.	.
.	.	8e	facts	.	.	.	.	.
=107	=107	=107	=107	=107	=107	=107	=107	=107
1AM	A:maj/3	4r	.	4r	.	.	152.168	.
.	.	8d	but	4e 4a	Hoo,	.	.	.
.	.	8e	if	.	.	.	.	.
.	.	8r	.	4e 4a	hoo	.	.	.
.	.	8e	it's	.	.	.	.	.
.	.	8d	_	4r	.	.	.	.
.	.	8f	true	.	.	B	.	.
=108	=108	=108	=108	=108	=108	=108	=108	=108
.	.	.	.	8eq 8aq	_	.	.	.
1AM	A:maj/3	4e	_	4.f# 4.b	hoo	.	153.595	.
.	.	8r	.	.	.	.	.	.
.	.	8eq	_	.	.	.	.	.
.	.	8f	I	8e 8a	_	.	.	.
.	.	4e	_	2r	.	.	.	.
.	.	8e	wan-	.	.	.	.	.
.	.	8d	-na	.	.	.	.	.
=109	=109	=109	=109	=109	=109	=109	=109	=109
1Bm	B:min	4d	know	4r	.	.	155.022	newline
.	.	8B	who's	8e 8g	Hoo,	.	.	.
.	.	[8d	in	4e 4g	_	.	.	.
.	.	8d]	_	.	.	.	.	.
.	.	4e	my	4r	.	.	.	.
.	.	8eq	_	.	.	.	.	.
.	.	[8f#	foot	8r	.	.	.	.
=110	=110	=110	=110	=110	=110	=110	=110	=110
.	.	.	.	8eq 8gq	_	.	.	.
1GM	G:maj	8f#]	_	4.f# 4.a	hoo	.	156.45	.
.	.	4d	steps	.	.	.	.	.
.	.	8r	.	8e 8g	_	.	.	.
.	.	8r	.	2r	.	.	.	.
.	.	8f	I	.	.	.	.	.
.	.	8e	wan-	.	.	.	.	.
.	.	8d	-na	.	.	.	.	.
=111	=111	=111	=111	=111	=111	=111	=111	=111
2Emm	E:min7	4d	know	1r	.	.	157.878	.
.	.	4r	.	.	.	.	.	.
2DM	D:maj/3	4f	who	.	.	B	158.592	.
.	.	4e	_	.	.	.	.	.
=112	=112	=112	=112	=112	=112	=112	=112	=112
2GM	G:maj	8e	wears	1r	.	.	159.306	.
.	.	8d	_	.	.	.	.	.
.	.	8.r	.	.	.	.	.	.
.	.	16eQ	_	.	.	.	.	.
.	.	16f	these	.	.	.	.	.
2AM	A:maj	4.e	_	.	.	.	160.02	.
.	.	16e	shoes	.	.	B	.	.
.	.	16d	_	.	.	.	.	.
=113	=113	=113	=113	=113	=113	=113	=113	=113
*>Letter>B	*>Letter>B	*>Letter>B	*>Letter>B	*>Letter>B	*>Letter>B	*>Letter>B	*>Letter>B	*>Letter>B
*>Label>Refrain	*>Label>Refrain	*>Label>Refrain	*>Label>Refrain	*>Label>Refrain	*>Label>Refrain	*>Label>Refrain	*>Label>Refrain	*>Label>Refrain
1Bm	B:min	4B	_	1r	.	.	160.734	newline
.	.	4r	.	.	.	.	.	.
.	.	2r	.	.	.	.	.	.
=114	=114	=114	=114	=114	=114	=114	=114	=114
1Bm	B:min	2r	.	2r	.	.	162.166	.
.	.	4r	.	4r	.	.	.	.
.	.	8r	.	8r	.	.	.	.
.	.	8dq	_	8f#q	_	.	.	.
.	.	[8e	Dar	[8g	Dar	.	.	.
=115	=115	=115	=115	=115	=115	=115	=115	=115
1Em	E:min	8e]	_	8g]	_	.	163.598	.
.	.	8f#	ling	8a	ling	.	.	.
.	.	4r	.	4r	.	.	.	.
.	.	2r	.	2r	.	.	.	.
=116	=116	=116	=116	=116	=116	=116	=116	=116
1Em	E:min	1r	.	1r	.	.	165.03	.
=117	=117	=117	=117	=117	=117	=117	=117	=117
1Bm	B:min	1r	.	1r	.	.	166.462	newline
=118	=118	=118	=118	=118	=118	=118	=118	=118
1Bm	B:min	2r	.	2r	.	.	167.894	.
.	.	4r	.	4r	.	.	.	.
.	.	8r	.	8r	.	.	.	.
.	.	8dq	_	8f#q	_	.	.	.
.	.	[8e	Dar	[8g	Dar	.	.	.
=119	=119	=119	=119	=119	=119	=119	=119	=119
1Em	E:min	8e]	_	8g]	_	.	169.326	.
.	.	8f#	ling	8a	ling	.	.	.
.	.	4r	.	4r	.	.	.	.
.	.	2r	.	2r	.	.	.	.
=120	=120	=120	=120	=120	=120	=120	=120	=120
1Em	E:min	2r	.	1r	.	.	170.758	.
.	.	4r	.	.	.	.	.	.
.	.	8r	.	.	.	.	.	.
.	.	8A	Uh	.	.	.	.	.
=121	=121	=121	=121	=121	=121	=121	=121	=121
*>Letter>A	*>Letter>A	*>Letter>A	*>Letter>A	*>Letter>A	*>Letter>A	*>Letter>A	*>Letter>A	*>Letter>A
*>Label>Chorus	*>Label>Chorus	*>Label>Chorus	*>Label>Chorus	*>Label>Chorus	*>Label>Chorus	*>Label>Chorus	*>Label>Chorus	*>Label>Chorus
1GM	G:maj	8f	come	1r	.	.	172.19	newline
.	.	4e	on	.	.	.	.	.
.	.	8e	now	.	.	.	.	.
.	.	8r	.	.	.	.	.	.
.	.	8B	I've	.	.	.	.	.
.	.	4d	got	.	.	.	.	.
=122	=122	=122	=122	=122	=122	=122	=122	=122
1GM	G:maj	8d	no-	1r	.	.	173.612	.
.	.	8d	-thing	.	.	.	.	.
.	.	8e	to	.	.	.	.	.
.	.	8fq	_	.	.	.	.	.
.	.	[8f#	lose,	.	.	B	.	.
.	.	8f#]	_	.	.	.	.	.
.	.	8f#	I	.	.	.	.	.
.	.	8e	wan-	.	.	.	.	.
.	.	8d	-na	.	.	.	.	.
=123	=123	=123	=123	=123	=123	=123	=123	=123
1DM	D:maj	4d	know,	1r	.	.	175.034	.
.	.	8d	wan-	.	.	.	.	.
.	.	8B	-na	.	.	.	.	.
.	.	4d	know	.	.	.	.	.
.	.	8r	.	.	.	.	.	.
.	.	8B	who	.	.	.	.	.
=124	=124	=124	=124	=124	=124	=124	=124	=124
1DM	D:maj	8d	wears	1r	.	.	176.456	.
.	.	4e	these	.	.	.	.	.
.	.	8f	shoes?	.	.	B	.	.
.	.	4.e	_	.	.	.	.	.
.	.	8fq	_	.	.	.	.	.
.	.	[8e	Come	.	.	.	.	.
=125	=125	=125	=125	=125	=125	=125	=125	=125
1GM	G:maj	8e]	_	1r	.	.	177.878	newline
.	.	4d	on,	.	.	.	.	.
.	.	8d	no	.	.	.	.	.
.	.	4r	.	.	.	.	.	.
.	.	8r	.	.	.	.	.	.
.	.	8B	Got	.	.	.	.	.
=126	=126	=126	=126	=126	=126	=126	=126	=126
1GM	G:maj	8d	no-	1r	.	.	179.294	.
.	.	8d	-thing	.	.	.	.	.
.	.	8e	to	.	.	.	.	.
.	.	8fq	_	.	.	.	.	.
.	.	[8e	lose,	.	.	B	.	.
.	.	8e]	_	.	.	.	.	.
.	.	8f#	I	.	.	.	.	.
.	.	8e	wan-	.	.	.	.	.
.	.	8d	-na	.	.	.	.	.
=127	=127	=127	=127	=127	=127	=127	=127	=127
1Bm	B:min	4d	know,	1r	.	.	180.71	.
.	.	8d	wan-	.	.	.	.	.
.	.	8B	-na	.	.	.	.	.
.	.	4d	know	.	.	.	.	.
.	.	8r	.	.	.	.	.	.
.	.	8B	who	.	.	B	.	.
=128	=128	=128	=128	=128	=128	=128	=128	=128
1Bm	B:min	8d	wears	1r	.	.	182.126	.
.	.	4e	these	.	.	.	.	.
.	.	[8~f	shoes,	.	.	B	.	.
.	.	8f#	_	.	.	.	.	.
.	.	8f#	I	.	.	.	.	.
.	.	8e	got	.	.	.	.	.
.	.	8d	the	.	.	.	.	.
=129	=129	=129	=129	=129	=129	=129	=129	=129
1GM	G:maj	4d	blues	1r	.	B	183.542	newline
.	.	4r	.	.	.	.	.	.
.	.	4r	.	.	.	.	.	.
.	.	8r	.	.	.	.	.	.
.	.	8B	W-	.	.	.	.	.
=130	=130	=130	=130	=130	=130	=130	=130	=130
1GM	G:maj	8d	-whe-	1r	.	.	184.956	.
.	.	8d	-ther	.	.	.	.	.
.	.	8e	it's	.	.	.	.	.
.	.	8~f_	true,	.	.	B	.	.
.	.	8f#	_	.	.	.	.	.
.	.	8f#	I	.	.	.	.	.
.	.	8e	got	.	.	.	.	.
.	.	8d	the	.	.	.	.	.
=131	=131	=131	=131	=131	=131	=131	=131	=131
1DM	D:maj	4d	blues	1r	.	B	186.37	.
.	.	4r	.	.	.	.	.	.
.	.	4r	.	.	.	.	.	.
.	.	8r	.	.	.	.	.	.
.	.	8B	W-	.	.	.	.	.
=132	=132	=132	=132	=132	=132	=132	=132	=132
1DM	D:maj	8d	-whe-	1r	.	.	187.784	.
.	.	8d	-ther	.	.	.	.	.
.	.	8e	it's	.	.	.	.	.
.	.	8~f_	true,	.	.	B	.	.
.	.	8f#	_	.	.	.	.	.
.	.	8f#	I	.	.	.	.	.
.	.	8e	wan-	.	.	.	.	.
.	.	8d	-na	.	.	.	.	.
=133	=133	=133	=133	=133	=133	=133	=133	=133
1GM	G:maj	4d	know	1r	.	.	189.198	newline
.	.	4r	.	.	.	.	.	.
.	.	4r	.	.	.	.	.	.
.	.	8r	.	.	.	.	.	.
.	.	8B	Got	.	.	.	.	.
=134	=134	=134	=134	=134	=134	=134	=134	=134
1GM	G:maj	8d	no-	1r	.	.	190.624	.
.	.	8d	-thing	.	.	.	.	.
.	.	8e	to	.	.	.	.	.
.	.	8~f_	lose,	.	.	B	.	.
.	.	8f#	_	.	.	.	.	.
.	.	8f#	I	.	.	.	.	.
.	.	8e	wan-	.	.	.	.	.
.	.	8d	-na	.	.	.	.	.
=135	=135	=135	=135	=135	=135	=135	=135	=135
1Bm	B:min	8f]	know,	1r	.	.	192.05	.
.	.	8f	I	.	.	.	.	.
.	.	8e	wan-	.	.	.	.	.
.	.	8d	-na	.	.	.	.	.
.	.	8d	know	.	.	.	.	.
.	.	8r	.	.	.	.	.	.
.	.	8r	.	.	.	.	.	.
.	.	8B	who	.	.	B	.	.
=136	=136	=136	=136	=136	=136	=136	=136	=136
1Bm	B:min	8d	wears	1r	.	.	193.476	.
.	.	4e	these	.	.	.	.	.
.	.	[8~f	shoes!	.	.	B	.	.
.	.	8f#	_	.	.	.	.	.
.	.	8f#	I	.	.	.	.	.
.	.	8e	got	.	.	.	.	.
.	.	8d	the	.	.	.	.	.
=137	=137	=137	=137	=137	=137	=137	=137	=137
1GM	G:maj	4d	blues	4r	.	B	194.902	newline
.	.	4r	.	4g 4b	Hoo,	.	.	.
.	.	4r	.	4g 4b	hoo	.	.	.
.	.	8r	.	4r	.	.	.	.
.	.	8B	_	.	.	.	.	.
=138	=138	=138	=138	=138	=138	=138	=138	=138
.	.	.	.	8gq 8bq	_	.	.	.
1GM	G:maj	8d	whe-	4.a 4.cc	hoo	.	196.325	.
.	.	8d	-ther	.	.	.	.	.
.	.	8e	it's	.	.	.	.	.
.	.	8~f_	true,	8g 8b	_	B	.	.
.	.	8f#	_	2r	.	.	.	.
.	.	8f#	I	.	.	.	.	.
.	.	8e	got	.	.	.	.	.
.	.	8d	the	.	.	.	.	.
=139	=139	=139	=139	=139	=139	=139	=139	=139
1DM	D:maj	4d	blues	4r	.	B	197.749	.
.	.	4r	.	4f# 4a	Hoo,	.	.	.
.	.	4r	.	4f# 4a	hoo	.	.	.
.	.	8r	.	4r	.	.	.	.
.	.	8B	W-	.	.	.	.	.
=140	=140	=140	=140	=140	=140	=140	=140	=140
.	.	.	.	8f#q 8aq	_	.	.	.
1DM	D:maj	8d	-whe-	4.g 4.b	hoo	.	199.172	.
.	.	8d	-ther	.	.	.	.	.
.	.	8e	it's	.	.	.	.	.
.	.	8~f_	true,	8f# 8a	_	B	.	.
.	.	8f#	_	2r	.	.	.	.
.	.	8f#	I	.	.	.	.	.
.	.	8e	got	.	.	.	.	.
.	.	8d	the	.	.	.	.	.
=141	=141	=141	=141	=141	=141	=141	=141	=141
1GM	G:maj	4d	blues	4r	.	B	200.596	newline
.	.	4r	.	4g 4b	Hoo,	.	.	.
.	.	4r	.	4g 4b	hoo	.	.	.
.	.	8r	.	4r	.	.	.	.
.	.	8B	Got	.	.	.	.	.
=142	=142	=142	=142	=142	=142	=142	=142	=142
.	.	.	.	8gq 8bq	_	.	.	.
1GM	G:maj	8d	no	4.a 4.cc	hoo	.	202.016	.
.	.	8d	thing	.	.	.	.	.
.	.	8e	to	.	.	.	.	.
.	.	8~f_	lose,	8g 8b	_	B	.	.
.	.	8f#	_	4r	.	.	.	.
.	.	8f#	I	.	.	.	.	.
.	.	8e	wan	[4f# [4a	hoo	.	.	.
.	.	8d	na	.	.	.	.	.
=143	=143	=143	=143	=143	=143	=143	=143	=143
1Bm	B:min	8f]	know,	2f#] 2a]	_	.	203.436	.
.	.	8f	I	.	.	.	.	.
.	.	8e	wan-	.	.	.	.	.
.	.	8d	-na	.	.	.	.	.
.	.	8d	know	2r	.	.	.	.
.	.	8r	.	.	.	.	.	.
.	.	8r	.	.	.	.	.	.
.	.	8B	who	.	.	B	.	.
=144	=144	=144	=144	=144	=144	=144	=144	=144
1Bm	B:min	8d	wears	1r	.	.	204.856	.
.	.	4e	these	.	.	.	.	.
.	.	[8~f	shoes,	.	.	B	.	.
.	.	8f#	_	.	.	.	.	.
.	.	8f#	I	.	.	.	.	.
.	.	8e	wan-	.	.	.	.	.
.	.	8d	-na	.	.	.	.	.
=145	=145	=145	=145	=145	=145	=145	=145	=145
1GM	G:maj	4d	blues	4r	.	B	206.276	newline
.	.	4r	.	4g 4b	Hoo,	.	.	.
.	.	4r	.	4g 4b	hoo	.	.	.
.	.	8r	.	4r	.	.	.	.
.	.	8B	W-	.	.	.	.	.
=146	=146	=146	=146	=146	=146	=146	=146	=146
.	.	.	.	8gq 8bq	_	.	.	.
1GM	G:maj	8d	-whe-	4.a 4.cc	hoo	.	207.699	.
.	.	8d	-ther	.	.	.	.	.
.	.	8e	it's	.	.	.	.	.
.	.	8~f_	true,	8g 8b	_	B	.	.
.	.	8f#	_	2r	.	.	.	.
.	.	8f#	I	.	.	.	.	.
.	.	8e	got	.	.	.	.	.
.	.	8d	the	.	.	.	.	.
=147	=147	=147	=147	=147	=147	=147	=147	=147
1DM	D:maj	4d	blues	4r	.	B	209.122	.
.	.	4r	.	4f# 4a	Hoo,	.	.	.
.	.	4r	.	4f# 4a	hoo	.	.	.
.	.	8r	.	4r	.	.	.	.
.	.	8B	W-	.	.	.	.	.
=148	=148	=148	=148	=148	=148	=148	=148	=148
.	.	.	.	8f#q 8aq	_	.	.	.
1DM	D:maj	8d	-whe-	4.g 4.b	hoo	.	210.545	.
.	.	8d	-ther	.	.	.	.	.
.	.	8e	it's	.	.	.	.	.
.	.	8~f_	true,	8f# 8a	_	B	.	.
.	.	8f#	_	2r	.	.	.	.
.	.	8f#	I	.	.	.	.	.
.	.	8e	wan-	.	.	.	.	.
.	.	8d	-na	.	.	.	.	.
=149	=149	=149	=149	=149	=149	=149	=149	=149
*>Label>>Fadeout	*>Label>>Fadeout	*>Label>>Fadeout	*>Label>>Fadeout	*>Label>>Fadeout	*>Label>>Fadeout	*>Label>>Fadeout	*>Label>>Fadeout	*>Label>>Fadeout
1GM	G:maj	4d	know	4r	.	.	211.968	newline
.	.	4r	.	4g 4b	Hoo,	.	.	.
.	.	4r	.	4g 4b	hoo	.	.	.
.	.	8r	.	4r	.	.	.	.
.	.	8B	Got	.	.	.	.	.
=150	=150	=150	=150	=150	=150	=150	=150	=150
.	.	.	.	8gq 8bq	_	.	.	.
1GM	G:maj	8d	no-	4.a 4.cc	hoo	.	213.403	.
.	.	8d	-thing	.	.	.	.	.
.	.	8e	to	.	.	.	.	.
.	.	8~f_	lose,	8g 8b	_	B	.	.
.	.	8f#	_	4r	.	.	.	.
.	.	8f#	I	.	.	.	.	.
.	.	8e	wan-	[4f# [4a	hoo	.	.	.
.	.	8d	-na	.	.	.	.	.
=151	=151	=151	=151	=151	=151	=151	=151	=151
1Bm	B:min	8f]	know,	2f#] 2a]	_	.	214.839	.
.	.	8f	I	.	.	.	.	.
.	.	8e	wan-	.	.	.	.	.
.	.	8d	-na	.	.	.	.	.
.	.	8d	know	2r	.	.	.	.
.	.	8r	.	.	.	.	.	.
.	.	8r	.	.	.	.	.	.
.	.	8B	who	.	.	B	.	.
=152	=152	=152	=152	=152	=152	=152	=152	=152
1Bm	B:min	8d	wears	1r	.	.	216.274	.
.	.	4e	these	.	.	.	.	.
.	.	[8~f	shoes!	.	.	B	.	.
.	.	8f#	_	.	.	.	.	.
.	.	8f#	I	.	.	.	.	.
.	.	8e	got	.	.	.	.	.
.	.	8d	the	.	.	.	.	.
=153	=153	=153	=153	=153	=153	=153	=153	=153
1GM	G:maj	4d	blues	4r	.	B	217.71	newline
.	.	4r	.	4g 4b	Hoo,	.	.	.
.	.	4r	.	4g 4b	hoo	.	.	.
.	.	8r	.	4r	.	.	.	.
.	.	8B	W-	.	.	.	.	.
=154	=154	=154	=154	=154	=154	=154	=154	=154
.	.	.	.	8gq 8bq	_	.	.	.
1GM	G:maj	8d	-whe-	4.a 4.cc	hoo	.	219.125	.
.	.	8d	-ther	.	.	.	.	.
.	.	8e	it's	.	.	.	.	.
.	.	8~f_	true,	8g 8b	_	B	.	.
.	.	8f#	_	2r	.	.	.	.
.	.	8f#	I	.	.	.	.	.
.	.	8e	got	.	.	.	.	.
.	.	8d	the	.	.	.	.	.
=155	=155	=155	=155	=155	=155	=155	=155	=155
1DM	D:maj	4d	blues	4r	.	B	220.54	.
.	.	4r	.	4f# 4a	Hoo,	.	.	.
.	.	4r	.	4f# 4a	hoo	.	.	.
.	.	8r	.	4r	.	.	.	.
.	.	8B	W-	.	.	.	.	.
=156	=156	=156	=156	=156	=156	=156	=156	=156
.	.	.	.	8f#q 8aq	_	.	.	.
1DM	D:maj	8d	-whe-	4.g 4.b	hoo	.	221.954	.
.	.	8d	-ther	.	.	.	.	.
.	.	8e	it's	.	.	.	.	.
.	.	8~f_	true,	8f# 8a	_	B	.	.
.	.	8f#	_	2r	.	.	.	.
.	.	8f#	I	.	.	.	.	.
.	.	8e	wan-	.	.	.	.	.
.	.	8d	-na	.	.	.	.	.
=157	=157	=157	=157	=157	=157	=157	=157	=157
1GM	G:maj	4d	know	4r	.	.	223.369	newline
.	.	4r	.	4g 4b	Hoo,	.	.	.
.	.	4r	.	4g 4b	hoo	.	.	.
.	.	8r	.	4r	.	.	.	.
.	.	8B	Got	.	.	.	.	.
=158	=158	=158	=158	=158	=158	=158	=158	=158
.	.	.	.	8gq 8bq	_	.	.	.
1GM	G:maj	8d	no-	4.a 4.cc	hoo	.	224.79	.
.	.	8d	-thing	.	.	.	.	.
.	.	8e	to	.	.	.	.	.
.	.	8~f_	lose,	8g 8b	_	B	.	.
.	.	8f#	_	4r	.	.	.	.
.	.	8f#	I	.	.	.	.	.
.	.	8e	wan-	[4f# [4a	hoo	.	.	.
.	.	8d	-na	.	.	.	.	.
=159	=159	=159	=159	=159	=159	=159	=159	=159
1Bm	B:min	8f]	know,	2f#] 2a]	_	.	226.211	.
.	.	8f	I	.	.	.	.	.
.	.	8e	wan-	.	.	.	.	.
.	.	8d	-na	.	.	.	.	.
.	.	8d	know	2r	.	.	.	.
.	.	8r	.	.	.	.	.	.
.	.	8r	.	.	.	.	.	.
.	.	8B	who	.	.	B	.	.
=160	=160	=160	=160	=160	=160	=160	=160	=160
1Bm	B:min	8d	wears	1r	.	.	227.632	.
.	.	4e	these	.	.	.	.	.
.	.	[8~f	shoes!	.	.	B	.	.
.	.	8f#	_	.	.	.	.	.
.	.	8f#	I	.	.	.	.	.
.	.	8e	got	.	.	.	.	.
.	.	8d	the	.	.	.	.	.
=161	=161	=161	=161	=161	=161	=161	=161	=161
.	.	8eq	_	.	.	.	.	.
1GM	G:maj	4f]	blues	4r	.	B	229.053	newline
.	.	4r	.	4g 4b	Hoo,	.	.	.
.	.	2r	.	4g 4b	hoo	.	.	.
.	.	.	.	4r	.	.	.	.
=162	=162	=162	=162	=162	=162	=162	=162	=162
.	.	.	.	8gq 8bq	_	.	.	.
1GM	G:maj	4r	.	4.a 4.cc	hoo	.	230.473	.
.	.	8r	.	.	.	.	.	.
.	.	[8b	Hoo,	8g 8b	_	.	.	.
.	.	8b]	_	2r	.	.	.	.
.	.	8d	I	.	.	.	.	.
.	.	8~e	got	.	.	.	.	.
.	.	8d	the	.	.	.	.	.
=163	=163	=163	=163	=163	=163	=163	=163	=163
.	.	8fq	_	.	.	.	.	.
1DM	D:maj	4f#	blues	4r	.	B	231.893	.
.	.	4r	.	4f# 4a	Hoo,	.	.	.
.	.	2r	.	4f# 4a	hoo	.	.	.
.	.	.	.	4r	.	.	.	.
=164	=164	=164	=164	=164	=164	=164	=164	=164
.	.	.	.	8f#q 8aq	_	.	.	.
1DM	D:maj	4r	.	4.g 4.b	hoo	.	233.313	.
.	.	8r	.	.	.	.	.	.
.	.	16d	Hoo,	8f# 8a	_	.	.	.
.	.	16e	_	.	.	.	.	.
.	.	4.f	_	2r	.	.	.	.
.	.	16d	hoo	.	.	.	.	.
.	.	16e	_	.	.	.	.	.
=165	=165	=165	=165	=165	=165	=165	=165	=165
1GM	G:maj	4e	_	4r	.	.	234.733	newline
.	.	4r	.	4g 4b	Hoo,	.	.	.
.	.	4r	.	4g 4b	hoo	.	.	.
.	.	8r	.	4r	.	.	.	.
.	.	[8f	Who	.	.	B	.	.
=166	=166	=166	=166	=166	=166	=166	=166	=166
.	.	.	.	8gq 8bq	_	.	.	.
1GM	G:maj	8f]	_	4.a 4.cc	hoo	.	236.145	.
.	.	4d	_	.	.	.	.	.
.	.	[8f	wears	8g 8b	_	.	.	.
.	.	8f]	_	4r	.	.	.	.
.	.	4d	these	.	.	.	.	.
.	.	.	.	[4f# [4a	hoo	.	.	.
.	.	[8d	shoes	.	.	B	.	.
=167	=167	=167	=167	=167	=167	=167	=167	=167
1Bm	B:min	8d]	_	2f#] 2a]	_	.	237.556	.
.	.	8r	.	.	.	.	.	.
.	.	4r	.	.	.	.	.	.
.	.	2r	.	2r	.	.	.	.
=168	=168	=168	=168	=168	=168	=168	=168	=168
1Bm	B:min	4r	.	1r	.	.	238.967	.
.	.	8r	.	.	.	.	.	.
.	.	[8~f	Ah,	.	.	.	.	.
.	.	8f#	_	.	.	.	.	.
.	.	8f#	I	.	.	.	.	.
.	.	8e	got	.	.	.	.	.
.	.	8d	the	.	.	.	.	.
=169	=169	=169	=169	=169	=169	=169	=169	=169
.	.	8f]q	_	.	.	.	.	.
1GM	G:maj	4f#	blues	4r	.	B	240.201	.
.	.	4r	.	4g 4b	Hoo	.	.	.
.	.	2r	.	4g 4b	hoo	.	.	.
.	.	.	.	4r	.	.	.	.
=170	=170	=170	=170	=170	=170	=170	=170	=170
.	.	.	.	8gq 8bq	_	.	.	.
1GM	G:maj	1r	.	4.a 4.cc	hoo	.	240.378	.
.	.	.	.	8g 8b	_	.	.	.
.	.	.	.	2r	.	.	.	.
=171	=171	=171	=171	=171	=171	=171	=171	=171
1DM	D:maj	1r	.	1r	.	.	240.731	.
1r;	1r	r;	.	r;	.	.	240.907	.
1r;	1r	r;	.	r;	.	.	242.834	.
*-	*-	*-	*-	*-	*-	*-	*-	*-
!!!BillboardChartDate: 1984/11/17
!!!BillboardPeak: 16
!!!BillboardWeeksOnChart: 14
!!!COC: Elton John
!!!ENC: Nathaniel Condit-Schultz
!!!EST: Awating manual error checking and editing.
!!!OTL: Who Wears These Shoes?
!!!RDF**chordsym: original McGill chord annotation + (implied pitch class set, with bass pitch in first position)
!!!RDF**harmony: **recip + pitch class of root + harmonic quality
!!!RDF**leadinstrument: original McGill primary instrumentation annotation
!!!RDF**phrase: newline = linebreak in original McGill transcription
!!!RDF**timestamp: McGill audio timestamp in seconds
!!!RDT: 2017/01/12/
!!!SampleActualRank: 35
!!!SampleID#: 1269
!!!SampleTargetRank: 36
!!!MBID: f64b87e5-f378-4dc2-829b-ee697b284115
